X:5692
T:Gan Ainm
R:Reel
S:Garry Shannon
H:
N:
D:Lose the Head
Z:Adrian Scahill
M:2/2
L:1/8
K:E
G2BG BGFG|(3EFE EF GBce|fgge fgfe|^Bcfg ecBA|\
=G^GcG BGFG|(3EFE EF GBce|fgge fece|Bcef e4:||\
B3g fege|Bege fgfe|^BceB ceBc|ec=BG FGAF|\
G2cG BGFG|(3EFE EF GBce|fgge fece|Bcef e4:||
